X:65
M:9/8
L:1/8
K:G
"tr"B2G B/A/B/c/d/e/ gdB | dgf dgB de/f/g |
"tr"B2G B/A/B/c/d/e/ gdB | c>dc gec "tr"e2g ::
fdB de/f/g/f/ g/f/e/d/f | dgf dgB de/f/g |
fdB de/f/g/f/ g/f/e/d/B | c>dc g/f/e/d/c "tr"e2g ::
"tr"f2d dB/c/d dB/c/d | gB/c/d gB/c/d fdg |
"tr"f2d dB/c/d gdB | c>dc g/f/e/d/c "tr"e2g :|

